X:9
T:Dunphy's
M:C|
L:1/8
K:G Major
(3DEF|GDBD G2g2|feed ecAG|FAEA DFAc|BGAF GFED|!
GDBD G2g2|feed ecAG|FAdB cAFG|(3ABA GF G2:|!
Bc|(3ded Bd gdBd|gbaf gdBd|gefd ed (3Bcd|ed^ce d2 ef|!
gedc BGBd|ecAG FADF|GBdB cAFG|(3ABA GF G2:|!
